X:1
T: South of the Grampians
C:James Porteus
R:Strathspey
Q: 128
K:A
M:4/4
L:1/16
|:A,3B, C3F EC3 C3F|E3C D3F EC3 C3A|A,3B, C3A d3c d3e|((3f2e2d2) ((3c2B2A2) ((3G2F2E2) ((3D2C2B,2) |
A,3B, C3F EC3 C3F|E3C D3F EC3 CA3|d4 d3f eA3 c3e|((3f2e2d2) ((3c2B2A2) GB3 Bc3|
A4 ce3 A3e c3e|A3e c3e ((3A2c2e2) ((3f2g2a2) |eA3 c3B A3g a3g|((3f2e2d2) ((3c2B2A2) GB3 Bc3|
A4 c3e A3e c3A|E3A c3B ((3A2c2e2) ((3e2f2g2) |((3a2g2f2) ((3e2d2c2) ((3f2e2d2) ((3c2B2A2) |((3c2B2d2) ((3c2B2A2) ((3G2F2E2) ((3D2C2B,2) :|
